X: 14872
T: Garry Walsh's
R: jig
M: 6/8
K: Dmajor
|:ded AGF|EFG ~A3|EFG AGF|EFG AGF|
ded AGF|EFG ~A3|EFG AGF|1 ~E3 D2A:|2 ~E3 D2d||
|:~e3 g2f|e2d BAG|EFG AGF|EFG A2d|
~e3 g2f|e2d BAG|EFG AGF|1 ~E3 D2d:|2 ~E3 D2A||

